X: 31282
T: COTILLION No. 23. JIM CROW SETT tune 2
C:
%R: jig
B: Elias Howe "The Musician's Companion" Part 3 1844 p.128 #2
S: http://imslp.org/wiki/The_Musician's_Companion_(Howe,_Elias)
Z: 2015 John Chambers <jc:trillian.mit.edu>
M: 6/8
L: 1/8
K: Em
% - - - - - - - - - - - - - - - - - - - - - - - - - - - - -
d |\
e3 b2a | gfe ^def | gfe fe^d | efg B2B |\
e3 b2a | gfe ^def | gfe edc | BGE E2 H|]
G/A/ |\
BGE BGE | BGE EFG | AFD AFD | AFD DEF |\
GGG A2A | B^c^d e2f | gfe edB | BGE "^D.C."E2 |]
% - - - - - - - - - - Dance description - - - - - - - - - -
%%begintext align
%% First 2 give right hand across,
%% left hand back,
%% form a line,
%% balance 4,
%% half promenade,
%% ladies chain,
%% forward 4,
%% half promenade to place.
%% Next 2, &c.
%%endtext
% - - - - - - - - - - - - - - - - - - - - - - - - - - - - -
%%sep 1 1 300
